X:9
T:Connaught Man's Rambles
S:Bernie Waugh
R:Jig
M:6/8
L:1/8
K:A minor
|:G/F/|\
"C"EGG cGG|"F"AGA cGF|"C"EGG "Em"ced|"Am"cAA A2G|
"C"EGG cGG|"F"AGG cde|"C"ged "Em"ced|"Am"cAA A2:|
|:f|\
"Am"eaa egg|"C"edc cdf|"Am"eaa egg|"C"edc "G"d2f|
"Am"eaa egg|"C"edc cde|fed "Em"ced|"Am"cAA A2:|

